X: 5
T:Tombigbee 
R:
M:3/4
L:1/4
Q:1/4=90
K:G
B/A/|GBB|d2 B/2A/2|GBB|d2 B|
BAA|A2 B/2d/2|e2 d|B2 B/2A/2|
GBB|d2 B/2A/2|GBB|d2 B|
BAA|A2 d|edF|G2 d|
g2 d|g2 d3/2|e3/2 d/2e| d2 B|
BAA|A2 B/2d/2|e2 d|B2 d|
g2 d|g2 d3/2|e3/2 d/2e| d2 B|
BAA|A2 B/2d/2|edF|G3-|G2|]
